X:1
T:Bayou Sara
M:4/4
L:1/4
K:C
 E G G/2G/2 G/2G/2| A A G G/2G/2| B B B B| A F G2| E G G E| D D C C/2D/2|\
 E G G E| D D C2| E G G G| A A G G/2G/2| B B B B| A F G2| E G G E|\
 D D C C/2D/2| E G G E| D D C2|
